T: Fairy Queen, The
M: 4/4
L: 1/8
K: Dmaj
(3dcd (3edc d2 A>G | F>DF>A d>AF>D | (3GAG F>G E2 e>f |1 g>ec>e d>c :|d>f (3fff g>fg>a | b>a^g>a b>ag>a | f>dA>F (3GAG e>f |1 g>ec>e d>cB>A :|
